src/assets/airlines/lion-air.svg

<svg xmlns="http://www.w3.org/2000/svg" height="800" width="1200" id="svg9506" version="1.1" xml:space="preserve" clip-rule="evenodd" fill-rule="evenodd" image-rendering="optimizeQuality" shape-rendering="geometricPrecision" text-rendering="geometricPrecision" viewBox="-3953.62035 -1725.8045 34264.7097 10354.827"><defs id="defs9481"><style id="style9479" type="text/css">.fil0{fill:#fb0102}</style></defs><g transform="translate(-.532 -1.084)" id="Layer_x0020_1"><g id="_118875824"><path id="path9484" d="M814 1966C568 2665 323 3364 77 4063c-16 59-33 119-45 176-13 57-22 113-27 170-5 58-6 118-2 174s14 107 34 168 49 132 86 194c38 62 85 115 140 158 55 44 118 78 193 105s163 45 237 55c74 9 133 9 192 9h1695c14-1 28-2 42-6 13-4 26-12 40-21s28-20 40-34c13-14 24-32 33-50s17-37 24-56c61-186 121-372 165-510s72-227 88-279 19-66 20-79 1-24-1-35-7-22-13-31c-7-9-16-17-25-22s-18-8-29-10c-10-2-22-2-33-3H1695c-19 0-39 0-56-4-18-4-34-13-48-22-15-9-27-19-38-31s-19-27-26-46c-6-19-11-41-12-65-1-23 1-47 7-75 6-29 16-62 25-95 206-605 412-1210 617-1816 3-11 5-22 5-35-1-13-4-28-10-40s-14-21-22-28-17-10-27-12-22-2-34-3H958c-9 1-18 1-28 3-9 2-19 5-28 8-9 4-18 9-27 14-8 5-16 11-24 19-8 7-16 16-22 26s-10 21-15 32z" class="fil0"/><path id="path9486" d="M3951 2816c-10 1-19 1-30 4-10 3-21 7-30 12s-16 9-22 15c-7 5-13 12-18 19s-9 15-13 23l-699 2265c-2 8-3 16-4 23 0 8 1 15 3 22s6 14 12 20 14 12 21 16 14 6 20 7l18 3h1069c10 0 20 0 31-3 10-3 20-8 29-13s16-10 22-20c7-10 13-26 19-42 239-755 478-1510 717-2266 2-7 3-14 4-21s1-15 0-22-3-12-7-17c-3-5-8-10-13-14s-11-6-16-8c-5-1-11-2-16-2H3951z" class="fil0"/><path id="path9488" d="M7152 4055c-214 452-1216 507-1001-95 65-182 309-348 563-369 282-24 585 155 439 465zm1113-103c307-1065-1233-1767-2645-756-679 486-915 1441-207 1873 359 219 720 270 1216 191 631-100 1430-594 1636-1309z" class="fil0"/><ellipse cy="0" cx="0" id="ellipse9490" ry="252" rx="718" transform="matrix(1.00312 -.15888 .11661 1.88635 4664.69 2095.12)" class="fil0"/><path id="path9492" d="M8945 2803c-243 775-486 1551-729 2326-3 15-6 29-5 42 0 13 4 25 9 35s12 17 20 23 16 10 24 12c7 2 13 2 19 2h1061c10 0 21 0 32-2s24-6 34-10 17-8 24-14 13-14 18-22 8-16 12-24c134-454 267-908 401-1362 9-24 18-47 34-63 16-15 40-21 74-28 34-6 78-12 136-16s130-7 185-8c55-2 94-2 123 2s48 13 61 22c14 9 22 18 31 32 8 13 16 31 20 58s4 62 0 93c-4 30-13 56-26 94s-29 90-90 283-167 528-272 863c-2 7-3 14-4 22s-1 17 0 25 4 16 9 24 11 15 19 20 17 8 25 9 14 2 20 2h1088c13 0 26 0 36-3 11-3 20-8 28-14s15-13 21-20c5-7 9-13 12-19 125-412 251-824 376-1236 8-29 17-58 26-105s17-113 22-166c4-53 4-94 0-145s-12-112-21-160-18-82-31-113c-13-30-30-57-52-91-21-35-47-78-77-116-30-39-65-73-109-108-44-34-96-69-143-95s-90-43-133-60-87-34-140-47-116-22-212-26-224-4-331-1c-107 4-191 11-267 21-75 10-142 23-203 37-62 14-118 29-177 45-58 16-118 32-180 41-62 8-127 8-174 4-46-4-74-11-107-20-33-8-72-17-106-24-35-8-65-14-104-18-38-4-84-6-137-6s-113 3-172 6z" class="fil0"/><path id="path9494" d="M22758 2760c-7 0-13 1-20 2-7 2-13 4-19 8s-11 9-16 14c-4 5-8 10-11 16s-6 13-8 19c-240 781-479 1562-719 2343-1 7-3 14-3 22s2 15 5 22 8 13 14 17c6 5 15 8 22 10 8 2 15 2 22 2h1117c10-1 20-1 29-4s16-8 23-14c6-6 11-14 15-21 3-7 5-13 7-19l732-2358c1-5 2-10 2-15s0-10-2-16c-2-5-4-11-8-15s-9-8-15-10-12-3-19-4c-6-1-13-1-19-1h-1131z" class="fil0"/><ellipse cy="0" cx="0" id="ellipse9496" ry="252" rx="718" transform="matrix(1.00312 -.15888 .11661 1.88635 23495.9 2055.9)" class="fil0"/><path id="path9498" d="M20715 3860c-82 275-243 799-403 1324-1 4-1 8-1 14 1 6 3 13 7 19s11 11 17 14 12 4 16 4c4 1 8 1 11 1h1116c6-1 13-1 19-2s11-3 17-5 12-5 19-9c6-4 13-10 18-16 5-7 10-14 14-22 247-790 493-1579 740-2369 3-10 5-20 4-29-2-9-7-17-13-21s-12-4-18-4c-136 0-272 0-363-4-90-4-135-11-177-20s-80-18-120-31-82-29-119-42-68-22-118-35-118-30-176-43-106-22-173-31-152-17-232-22c-80-4-154-4-232 0s-161 13-225 23c-64 9-110 19-155 32s-90 28-134 45-88 34-133 55-92 45-143 73-106 60-162 100-114 89-172 140-116 105-171 163c-56 58-110 121-161 196s-100 161-142 240-77 150-106 215c-29 66-53 126-77 209-24 84-47 191-58 281s-11 164-7 222 13 101 22 140 17 73 26 103 17 57 28 82c10 26 23 51 38 76 15 26 32 52 51 78 20 26 42 52 62 73 20 22 37 39 59 56s48 34 78 51 65 34 105 47 85 22 131 27c45 5 91 5 134 5s83 0 119-4 68-13 106-26 81-30 119-47c39-17 73-35 112-57 38-22 81-48 120-74s73-52 107-82 68-64 93-93c26-30 43-55 61-81 17-26 35-53 52-83s35-63 48-97 21-69 30-103c-17 9-34 18-57 27s-51 17-93 30-97 30-147 38-93 8-128 4-61-12-88-25-55-29-78-51c-24-22-43-48-56-75s-19-55-22-97-3-97 2-144c4-47 13-85 21-125 9-40 18-81 31-123 13-43 30-87 51-135s47-100 77-151c30-52 64-104 112-160 47-56 108-116 162-159s100-69 145-86 88-26 129-31c41-4 80-4 118 1 37 5 72 14 98 27s42 29 57 46c14 17 26 34 34 56 9 22 15 48 17 74 3 26 2 52 0 78-3 26-7 52-90 327z" class="fil0"/><path id="path9500" d="M24346 2760c-248 796-495 1592-743 2389-2 9-4 19-4 29s3 21 9 30c5 9 13 15 23 19s23 7 32 8 15 1 21 1h1039c9 0 17 0 30-3 12-3 29-8 44-16s30-20 40-34 16-30 22-47c110-381 220-763 330-1144 11-32 22-64 35-91s29-48 46-67c17-18 35-34 52-47 17-14 35-26 53-36 19-11 39-20 62-28s50-16 77-21c26-5 52-9 77-9s48 2 68 5c20 4 35 8 55 15 19 7 43 15 66 23 193-234 385-468 578-701-9-25-17-49-30-74s-30-49-53-74-52-49-83-70c-31-20-63-37-96-49-33-13-66-23-108-32-41-9-91-18-160-21s-159-1-239 6-152 19-222 29-138 19-205 25-135 11-202 12-134 0-186-5-88-13-156-17c-69-4-170-4-271-4z" class="fil0"/><path id="path9502" d="M17891 1731c-15 66-75 153-105 210-19-14-50-55-73-79-30-31-47-59-67-96 52 0 93-3 130-10 53-9 70-22 115-25zm-1534 4236c-6-41-14-92-21-144l132-9h4c72-5 193-23 395-129 123-65 294-238 373-350 126-180 193-405 193-636v-11c0-60-6-119-15-176-1-4-1-9-2-13l-1-3c-18-105-51-209-100-309-141-291-412-495-719-577-63-17-128-29-194-35l-11-1-10-1c-184-14-373 16-549 96-17 8-33 15-48 23-135 68-254 163-351 276l-2 3-19-9c-350-168-866-1142-988-1585-151-548-247-1480-124-2048 19-88 43-212 52-255-355-225-844 81-899 776-89 1120 598 2291 1399 2987 116 101 205 166 269 216l172 125c-25 48-47 99-65 151-123-73-232-142-366-243-117-87-224-169-333-261-241-206-367-348-586-602-271-314-736-1098-760-1641-526-70-853 924 132 1831 638 588 1057 765 1866 1104-7 41-11 82-13 124l-1 11c-130 11-615-144-753-194-1267-460-1562-1010-1709-1165-207 147-241 571-58 816 310 415 983 654 1508 713 326 37 577 53 904 39l120-11c8 56 20 111 35 164l-18 4-22 5h-1c-689 141-1235 111-1894-100-188-60-431-204-462-221-59 49-171 888 972 897 287 2 575-54 822-133 233-75 445-166 681-257 23 44 48 86 77 127l-33 30c-7 8-16 15-25 23-158 135-547 300-748 365-450 145-648 122-1095 70 54 594 720 522 1098 373 383-151 637-437 919-719 32 33 66 64 102 93-24 54-51 99-82 145-164 239-571 549-812 659-248 113-390 120-427 127 23 155 185 239 375 238 570-5 940-734 1044-944l59-118c38 22 78 41 119 58l-43 142c-2 6-4 13-6 20v1c-25 78-72 181-150 312-290 488-553 562-583 577 66 116 268 147 420 85 371-150 427-698 492-1006l16-83c40 11 80 19 122 25l1 5c68 641-219 950-237 980 197 34 368-2 459-152 88-145 46-390 24-567 200-7 433-75 585-125 483-161 803-572 936-1052 13-46 33-93 44-142 77 0 163-8 163-105 0-21-19-84-29-100-30-48-158-129-158-262 0-29 17-77 23-105 63-5 152-70 152-140 0-105-178-160-243-224-64-64-143-225-143-324 0-60-30-210 58-210 93 0 467 191 467-385-146 70-252 117-399 2-172-134-29-597 294-597 70 0 120 15 155 55 31 35 53 107 55 167 65-43 112-100 160-166 29-40 85-192 85-254 0-43-22-58-19-92 5-55 81-128-15-189-76-48-226 41-483-88-34-17-71-43-101-51 1-65 23-75 23-140 0-102-318-230-427-297-76-47-146-95-206-155-84-85-125-154-136-199-17-8-33-14-59-14-96 0-168 73-187 152-21-22-37-38-67-58-30-21-63-38-93-51-215-92-358-97-587-218-85 57-156 149-128 268-108-57-205-47-321-30-70 10-293 41-350 37-56 0-134-10-180-19-5 65-35 118-35 198 0 79 24 129 35 152-132 0-198 1-304 22-110 22-191 28-302 24-33 140-38 210 37 348 27 50 88 140 114 166-58 20-163 40-222 47 0 165 71 398 114 551 127 454 351 833 633 1199 28 36 54 66 82 93 29-28 50-46 82-70 264-205 515-292 875-292 171 0 381 61 498 120 158 80 250 143 368 262 168 168 272 369 331 603 121 475-48 1040-446 1327-70 50-134 87-213 127-126 63-353 122-532 128zm1534-4236zm-1307-152c0 44 41 123 23 128-94-8-140-98-140-198 0-190 351-256 408-12-42-21-126-47-175-47-56 0-117 73-117 128z" class="fil0"/></g></g></svg>

<?xml version="1.0" encoding="UTF-8" standalone="no"?>
<!DOCTYPE svg PUBLIC "-//W3C//DTD SVG 1.1//EN" "http://www.w3.org/Graphics/SVG/1.1/DTD/svg11.dtd">
<svg width="100%" height="100%" viewBox="0 0 934 250" version="1.1" xmlns="http://www.w3.org/2000/svg" xmlns:xlink="http://www.w3.org/1999/xlink" xml:space="preserve" xmlns:serif="http://www.serif.com/" style="fill-rule:evenodd;clip-rule:evenodd;stroke-linejoin:round;stroke-miterlimit:2;">
    <g id="Artboard1" transform="matrix(0.778333,0,0,0.3125,0,0)">
        <rect x="0" y="0" width="1200" height="800" style="fill:none;"/>
        <g id="Layer_x0020_1" transform="matrix(0.044995,0,0,0.112069,6.993028,13.061332)">
            <g id="_118875824">
                <path id="path9484" d="M814,1966C568,2665 323,3364 77,4063C61,4122 44,4182 32,4239C19,4296 10,4352 5,4409C0,4467 -1,4527 3,4583C7,4639 17,4690 37,4751C57,4812 86,4883 123,4945C161,5007 208,5060 263,5103C318,5147 381,5181 456,5208C531,5235 619,5253 693,5263C767,5272 826,5272 885,5272L2580,5272C2594,5271 2608,5270 2622,5266C2635,5262 2648,5254 2662,5245C2676,5236 2690,5225 2702,5211C2715,5197 2726,5179 2735,5161C2744,5143 2752,5124 2759,5105C2820,4919 2880,4733 2924,4595C2968,4457 2996,4368 3012,4316C3028,4264 3031,4250 3032,4237C3033,4224 3033,4213 3031,4202C3029,4191 3024,4180 3018,4171C3011,4162 3002,4154 2993,4149C2984,4144 2975,4141 2964,4139C2954,4137 2942,4137 2931,4136L1695,4136C1676,4136 1656,4136 1639,4132C1621,4128 1605,4119 1591,4110C1576,4101 1564,4091 1553,4079C1542,4067 1534,4052 1527,4033C1521,4014 1516,3992 1515,3968C1514,3945 1516,3921 1522,3893C1528,3864 1538,3831 1547,3798C1753,3193 1959,2588 2164,1982C2167,1971 2169,1960 2169,1947C2168,1934 2165,1919 2159,1907C2153,1895 2145,1886 2137,1879C2129,1872 2120,1869 2110,1867C2100,1865 2088,1865 2076,1864L958,1864C949,1865 940,1865 930,1867C921,1869 911,1872 902,1875C893,1879 884,1884 875,1889C867,1894 859,1900 851,1908C843,1915 835,1924 829,1934C823,1944 819,1955 814,1966Z" style="fill:rgb(251,1,2);"/>
                <path id="path9486" d="M3951,2816C3941,2817 3932,2817 3921,2820C3911,2823 3900,2827 3891,2832C3882,2837 3875,2841 3869,2847C3862,2852 3856,2859 3851,2866C3846,2873 3842,2881 3838,2889L3139,5154C3137,5162 3136,5170 3135,5177C3135,5185 3136,5192 3138,5199C3140,5206 3144,5213 3150,5219C3156,5225 3164,5231 3171,5235C3178,5239 3185,5241 3191,5242L3209,5245L4278,5245C4288,5245 4298,5245 4309,5242C4319,5239 4329,5234 4338,5229C4347,5224 4354,5219 4360,5209C4367,5199 4373,5183 4379,5167C4618,4412 4857,3657 5096,2901C5098,2894 5099,2887 5100,2880C5101,2873 5101,2865 5100,2858C5099,2851 5097,2846 5093,2841C5090,2836 5085,2831 5080,2827C5075,2823 5069,2821 5064,2819C5059,2818 5053,2817 5048,2817L3951,2817L3951,2816Z" style="fill:rgb(251,1,2);"/>
                <path id="path9488" d="M7152,4055C6938,4507 5936,4562 6151,3960C6216,3778 6460,3612 6714,3591C6996,3567 7299,3746 7153,4056L7152,4055ZM8265,3952C8572,2887 7032,2185 5620,3196C4941,3682 4705,4637 5413,5069C5772,5288 6133,5339 6629,5260C7260,5160 8059,4666 8265,3951L8265,3952Z" style="fill:rgb(251,1,2);"/>
                <g id="ellipse9490" transform="matrix(1.00312,-0.15888,0.11661,1.88635,4664.69,2095.12)">
                    <ellipse cx="0" cy="0" rx="718" ry="252" style="fill:rgb(251,1,2);"/>
                </g>
                <path id="path9492" d="M8945,2803C8702,3578 8459,4354 8216,5129C8213,5144 8210,5158 8211,5171C8211,5184 8215,5196 8220,5206C8225,5216 8232,5223 8240,5229C8248,5235 8256,5239 8264,5241C8271,5243 8277,5243 8283,5243L9344,5243C9354,5243 9365,5243 9376,5241C9387,5239 9400,5235 9410,5231C9420,5227 9427,5223 9434,5217C9441,5211 9447,5203 9452,5195C9457,5187 9460,5179 9464,5171C9598,4717 9731,4263 9865,3809C9874,3785 9883,3762 9899,3746C9915,3731 9939,3725 9973,3718C10007,3712 10051,3706 10109,3702C10167,3698 10239,3695 10294,3694C10349,3692 10388,3692 10417,3696C10446,3700 10465,3709 10478,3718C10492,3727 10500,3736 10509,3750C10517,3763 10525,3781 10529,3808C10533,3835 10533,3870 10529,3901C10525,3931 10516,3957 10503,3995C10490,4033 10474,4085 10413,4278C10352,4471 10246,4806 10141,5141C10139,5148 10138,5155 10137,5163C10136,5171 10136,5180 10137,5188C10138,5196 10141,5204 10146,5212C10151,5220 10157,5227 10165,5232C10173,5237 10182,5240 10190,5241C10198,5242 10204,5243 10210,5243L11298,5243C11311,5243 11324,5243 11334,5240C11345,5237 11354,5232 11362,5226C11370,5220 11377,5213 11383,5206C11388,5199 11392,5193 11395,5187C11520,4775 11646,4363 11771,3951C11779,3922 11788,3893 11797,3846C11806,3799 11814,3733 11819,3680C11823,3627 11823,3586 11819,3535C11815,3484 11807,3423 11798,3375C11789,3327 11780,3293 11767,3262C11754,3232 11737,3205 11715,3171C11694,3136 11668,3093 11638,3055C11608,3016 11573,2982 11529,2947C11485,2913 11433,2878 11386,2852C11339,2826 11296,2809 11253,2792C11210,2775 11166,2758 11113,2745C11060,2732 10997,2723 10901,2719C10805,2715 10677,2715 10570,2718C10463,2722 10379,2729 10303,2739C10228,2749 10161,2762 10100,2776C10038,2790 9982,2805 9923,2821C9865,2837 9805,2853 9743,2862C9681,2870 9616,2870 9569,2866C9523,2862 9495,2855 9462,2846C9429,2838 9390,2829 9356,2822C9321,2814 9291,2808 9252,2804C9214,2800 9168,2798 9115,2798C9062,2798 9002,2801 8943,2804L8945,2803Z" style="fill:rgb(251,1,2);"/>
                <path id="path9494" d="M22758,2760C22751,2760 22745,2761 22738,2762C22731,2764 22725,2766 22719,2770C22713,2774 22708,2779 22703,2784C22699,2789 22695,2794 22692,2800C22689,2806 22686,2813 22684,2819C22444,3600 22205,4381 21965,5162C21964,5169 21962,5176 21962,5184C21962,5192 21964,5199 21967,5206C21970,5213 21975,5219 21981,5223C21987,5228 21996,5231 22003,5233C22011,5235 22018,5235 22025,5235L23142,5235C23152,5234 23162,5234 23171,5231C23180,5228 23187,5223 23194,5217C23200,5211 23205,5203 23209,5196C23212,5189 23214,5183 23216,5177L23948,2819C23949,2814 23950,2809 23950,2804C23950,2799 23950,2794 23948,2788C23946,2783 23944,2777 23940,2773C23936,2769 23931,2765 23925,2763C23919,2761 23913,2760 23906,2759C23900,2758 23893,2758 23887,2758L22756,2758L22758,2760Z" style="fill:rgb(251,1,2);"/>
                <g id="ellipse9496" transform="matrix(1.00312,-0.15888,0.11661,1.88635,23495.9,2055.9)">
                    <ellipse cx="0" cy="0" rx="718" ry="252" style="fill:rgb(251,1,2);"/>
                </g>
                <path id="path9498" d="M20715,3860C20633,4135 20472,4659 20312,5184C20311,5188 20311,5192 20311,5198C20312,5204 20314,5211 20318,5217C20322,5223 20329,5228 20335,5231C20341,5234 20347,5235 20351,5235C20355,5236 20359,5236 20362,5236L21478,5236C21484,5235 21491,5235 21497,5234C21503,5233 21508,5231 21514,5229C21520,5227 21526,5224 21533,5220C21539,5216 21546,5210 21551,5204C21556,5197 21561,5190 21565,5182C21812,4392 22058,3603 22305,2813C22308,2803 22310,2793 22309,2784C22307,2775 22302,2767 22296,2763C22290,2759 22284,2759 22278,2759C22142,2759 22006,2759 21915,2755C21825,2751 21780,2744 21738,2735C21696,2726 21658,2717 21618,2704C21578,2691 21536,2675 21499,2662C21462,2649 21431,2640 21381,2627C21331,2614 21263,2597 21205,2584C21147,2571 21099,2562 21032,2553C20965,2544 20880,2536 20800,2531C20720,2527 20646,2527 20568,2531C20490,2535 20407,2544 20343,2554C20279,2563 20233,2573 20188,2586C20143,2599 20098,2614 20054,2631C20010,2648 19966,2665 19921,2686C19876,2707 19829,2731 19778,2759C19727,2787 19672,2819 19616,2859C19560,2899 19502,2948 19444,2999C19386,3050 19328,3104 19273,3162C19217,3220 19163,3283 19112,3358C19061,3433 19012,3519 18970,3598C18928,3677 18893,3748 18864,3813C18835,3879 18811,3939 18787,4022C18763,4106 18740,4213 18729,4303C18718,4393 18718,4467 18722,4525C18726,4583 18735,4626 18744,4665C18753,4704 18761,4738 18770,4768C18779,4798 18787,4825 18798,4850C18808,4876 18821,4901 18836,4926C18851,4952 18868,4978 18887,5004C18907,5030 18929,5056 18949,5077C18969,5099 18986,5116 19008,5133C19030,5150 19056,5167 19086,5184C19116,5201 19151,5218 19191,5231C19231,5244 19276,5253 19322,5258C19367,5263 19413,5263 19456,5263C19499,5263 19539,5263 19575,5259C19611,5255 19643,5246 19681,5233C19719,5220 19762,5203 19800,5186C19839,5169 19873,5151 19912,5129C19950,5107 19993,5081 20032,5055C20071,5029 20105,5003 20139,4973C20173,4943 20207,4909 20232,4880C20258,4850 20275,4825 20293,4799C20310,4773 20328,4746 20345,4716C20362,4686 20380,4653 20393,4619C20406,4585 20414,4550 20423,4516C20406,4525 20389,4534 20366,4543C20343,4552 20315,4560 20273,4573C20231,4586 20176,4603 20126,4611C20076,4619 20033,4619 19998,4615C19963,4611 19937,4603 19910,4590C19883,4577 19855,4561 19832,4539C19808,4517 19789,4491 19776,4464C19763,4437 19757,4409 19754,4367C19751,4325 19751,4270 19756,4223C19760,4176 19769,4138 19777,4098C19786,4058 19795,4017 19808,3975C19821,3932 19838,3888 19859,3840C19880,3792 19906,3740 19936,3689C19966,3637 20000,3585 20048,3529C20095,3473 20156,3413 20210,3370C20264,3327 20310,3301 20355,3284C20400,3267 20443,3258 20484,3253C20525,3249 20564,3249 20602,3254C20639,3259 20674,3268 20700,3281C20726,3294 20742,3310 20757,3327C20771,3344 20783,3361 20791,3383C20800,3405 20806,3431 20808,3457C20811,3483 20810,3509 20808,3535C20805,3561 20801,3587 20718,3862L20715,3860Z" style="fill:rgb(251,1,2);"/>
                <path id="path9500" d="M24346,2760C24098,3556 23851,4352 23603,5149C23601,5158 23599,5168 23599,5178C23599,5188 23602,5199 23608,5208C23613,5217 23621,5223 23631,5227C23641,5231 23654,5234 23663,5235C23672,5236 23678,5236 23684,5236L24723,5236C24732,5236 24740,5236 24753,5233C24765,5230 24782,5225 24797,5217C24812,5209 24827,5197 24837,5183C24847,5169 24853,5153 24859,5136C24969,4755 25079,4373 25189,3992C25200,3960 25211,3928 25224,3901C25237,3874 25253,3853 25270,3834C25287,3816 25305,3800 25322,3787C25339,3773 25357,3761 25375,3751C25394,3740 25414,3731 25437,3723C25460,3715 25487,3707 25514,3702C25540,3697 25566,3693 25591,3693C25616,3693 25639,3695 25659,3698C25679,3702 25694,3706 25714,3713C25733,3720 25757,3728 25780,3736C25973,3502 26165,3268 26358,3035C26349,3010 26341,2986 26328,2961C26315,2936 26298,2912 26275,2887C26252,2862 26223,2838 26192,2817C26161,2797 26129,2780 26096,2768C26063,2755 26030,2745 25988,2736C25947,2727 25897,2718 25828,2715C25759,2712 25669,2714 25589,2721C25509,2728 25437,2740 25367,2750C25297,2760 25229,2769 25162,2775C25095,2781 25027,2786 24960,2787C24893,2788 24826,2787 24774,2782C24722,2777 24686,2769 24618,2765C24549,2761 24448,2761 24347,2761L24346,2760Z" style="fill:rgb(251,1,2);"/>
                <path id="path9502" d="M17891,1731C17876,1797 17816,1884 17786,1941C17767,1927 17736,1886 17713,1862C17683,1831 17666,1803 17646,1766C17698,1766 17739,1763 17776,1756C17829,1747 17846,1734 17891,1731ZM16357,5967C16351,5926 16343,5875 16336,5823L16468,5814L16472,5814C16544,5809 16665,5791 16867,5685C16990,5620 17161,5447 17240,5335C17366,5155 17433,4930 17433,4699L17433,4688C17433,4628 17427,4569 17418,4512C17417,4508 17417,4503 17416,4499L17415,4496C17397,4391 17364,4287 17315,4187C17174,3896 16903,3692 16596,3610C16533,3593 16468,3581 16402,3575L16391,3574L16381,3573C16197,3559 16008,3589 15832,3669C15815,3677 15799,3684 15784,3692C15649,3760 15530,3855 15433,3968L15431,3971L15412,3962C15062,3794 14546,2820 14424,2377C14273,1829 14177,897 14300,329C14319,241 14343,117 14352,74C13997,-151 13508,155 13453,850C13364,1970 14051,3141 14852,3837C14968,3938 15057,4003 15121,4053L15293,4178C15268,4226 15246,4277 15228,4329C15105,4256 14996,4187 14862,4086C14745,3999 14638,3917 14529,3825C14288,3619 14162,3477 13943,3223C13672,2909 13207,2125 13183,1582C12657,1512 12330,2506 13315,3413C13953,4001 14372,4178 15181,4517C15174,4558 15170,4599 15168,4641L15167,4652C15037,4663 14552,4508 14414,4458C13147,3998 12852,3448 12705,3293C12498,3440 12464,3864 12647,4109C12957,4524 13630,4763 14155,4822C14481,4859 14732,4875 15059,4861L15179,4850C15187,4906 15199,4961 15214,5014L15196,5018L15174,5023L15173,5023C14484,5164 13938,5134 13279,4923C13091,4863 12848,4719 12817,4702C12758,4751 12646,5590 13789,5599C14076,5601 14364,5545 14611,5466C14844,5391 15056,5300 15292,5209C15315,5253 15340,5295 15369,5336L15336,5366C15329,5374 15320,5381 15311,5389C15153,5524 14764,5689 14563,5754C14113,5899 13915,5876 13468,5824C13522,6418 14188,6346 14566,6197C14949,6046 15203,5760 15485,5478C15517,5511 15551,5542 15587,5571C15563,5625 15536,5670 15505,5716C15341,5955 14934,6265 14693,6375C14445,6488 14303,6495 14266,6502C14289,6657 14451,6741 14641,6740C15211,6735 15581,6006 15685,5796L15744,5678C15782,5700 15822,5719 15863,5736L15820,5878C15818,5884 15816,5891 15814,5898L15814,5899C15789,5977 15742,6080 15664,6211C15374,6699 15111,6773 15081,6788C15147,6904 15349,6935 15501,6873C15872,6723 15928,6175 15993,5867L16009,5784C16049,5795 16089,5803 16131,5809L16132,5814C16200,6455 15913,6764 15895,6794C16092,6828 16263,6792 16354,6642C16442,6497 16400,6252 16378,6075C16578,6068 16811,6000 16963,5950C17446,5789 17766,5378 17899,4898C17912,4852 17932,4805 17943,4756C18020,4756 18106,4748 18106,4651C18106,4630 18087,4567 18077,4551C18047,4503 17919,4422 17919,4289C17919,4260 17936,4212 17942,4184C18005,4179 18094,4114 18094,4044C18094,3939 17916,3884 17851,3820C17787,3756 17708,3595 17708,3496C17708,3436 17678,3286 17766,3286C17859,3286 18233,3477 18233,2901C18087,2971 17981,3018 17834,2903C17662,2769 17805,2306 18128,2306C18198,2306 18248,2321 18283,2361C18314,2396 18336,2468 18338,2528C18403,2485 18450,2428 18498,2362C18527,2322 18583,2170 18583,2108C18583,2065 18561,2050 18564,2016C18569,1961 18645,1888 18549,1827C18473,1779 18323,1868 18066,1739C18032,1722 17995,1696 17965,1688C17966,1623 17988,1613 17988,1548C17988,1446 17670,1318 17561,1251C17485,1204 17415,1156 17355,1096C17271,1011 17230,942 17219,897C17202,889 17186,883 17160,883C17064,883 16992,956 16973,1035C16952,1013 16936,997 16906,977C16876,956 16843,939 16813,926C16598,834 16455,829 16226,708C16141,765 16070,857 16098,976C15990,919 15893,929 15777,946C15707,956 15484,987 15427,983C15371,983 15293,973 15247,964C15242,1029 15212,1082 15212,1162C15212,1241 15236,1291 15247,1314C15115,1314 15049,1315 14943,1336C14833,1358 14752,1364 14641,1360C14608,1500 14603,1570 14678,1708C14705,1758 14766,1848 14792,1874C14734,1894 14629,1914 14570,1921C14570,2086 14641,2319 14684,2472C14811,2926 15035,3305 15317,3671C15345,3707 15371,3737 15399,3764C15428,3736 15449,3718 15481,3694C15745,3489 15996,3402 16356,3402C16527,3402 16737,3463 16854,3522C17012,3602 17104,3665 17222,3784C17390,3952 17494,4153 17553,4387C17674,4862 17505,5427 17107,5714C17037,5764 16973,5801 16894,5841C16768,5904 16541,5963 16362,5969L16357,5967ZM16584,1579C16584,1623 16625,1702 16607,1707C16513,1699 16467,1609 16467,1509C16467,1319 16818,1253 16875,1497C16833,1476 16749,1450 16700,1450C16644,1450 16583,1523 16583,1578L16584,1579Z" style="fill:rgb(251,1,2);"/>
            </g>
        </g>
    </g>
</svg>
